X: 38
T:Fourposter Bed
C:Traditional
N:In 3rd and 4th measure of 2nd part, note after each PIZZ is a tap on
N:the top of the fiddle.
M:2/4
L:1/16
Q:1/4=200
K:D
de|:f2f2 e2fg|agfe dcde|f2gf e2d2|a4 A4:|
|:e2ee e2ef|edcB A2A2|.a2.e2 .a2.e2|.a2.e2 .a2.e2|
e2ee e2ef|edcB A2^g2|a2 (3gag f2e2|d4 d4:|
